public/ls-cloud-card.svg

<svg width="241" height="290" viewBox="0 0 241 290" fill="none" xmlns="http://www.w3.org/2000/svg">
<g clip-path="url(#clip0_9_80927)">
<mask id="mask0_9_80927" style="mask-type:luminance" maskUnits="userSpaceOnUse" x="0" y="0" width="241" height="290">
<path d="M241 0H0V290H241V0Z" fill="white"/>
</mask>
<g mask="url(#mask0_9_80927)">
<path d="M228.358 149.91H182.977L132.461 120.746C125.955 116.99 114.591 117.461 107.078 121.801L58.3846 149.91H13.0286V299.784H13.0436C12.8566 302.324 14.2766 304.777 17.4006 306.584L108.901 359.414C115.408 363.169 126.772 362.699 134.284 358.359L222.142 307.633C226.042 305.382 228.121 302.533 228.324 299.781H228.357L228.358 149.91Z" fill="url(#paint0_linear_9_80927)"/>
<path d="M108.903 209.542L17.4032 156.713C10.8972 152.957 11.7152 146.394 19.2262 142.059L107.082 91.3328C114.595 86.9978 125.957 86.5268 132.465 90.2778L223.965 143.107C230.472 146.863 229.655 153.423 222.142 157.761L134.287 208.486C126.774 212.826 115.415 213.296 108.903 209.542Z" fill="#F2F5FC"/>
<path d="M184.38 149.588L129.724 180.939C127.854 182.033 125.726 182.609 123.559 182.609C121.393 182.609 119.265 182.033 117.394 180.939L58.6753 147.267C58.2509 146.992 57.9392 146.574 57.7967 146.089C57.6541 145.603 57.6902 145.083 57.8983 144.622C58.0538 144.249 58.3265 143.935 58.6753 143.73L114.28 111.841C115.862 110.917 117.662 110.43 119.494 110.43C121.327 110.43 123.126 110.917 124.708 111.841L184.38 146.053C184.805 146.33 185.116 146.749 185.258 147.235C185.4 147.721 185.363 148.242 185.153 148.703C184.998 149.074 184.727 149.386 184.38 149.59V149.588Z" fill="#3A456E"/>
<path d="M184.382 149.589L178.805 152.789L124.715 121.776C123.133 120.852 121.334 120.364 119.501 120.364C117.669 120.364 115.869 120.852 114.287 121.776L64.2573 150.468L58.6754 147.268C58.251 146.993 57.9392 146.575 57.7967 146.09C57.6541 145.605 57.6902 145.084 57.8983 144.623C58.0537 144.25 58.3264 143.937 58.6754 143.731L114.285 111.837C115.867 110.913 117.667 110.426 119.499 110.426C121.332 110.426 123.131 110.913 124.713 111.837L184.386 146.05C184.809 146.329 185.119 146.75 185.258 147.237C185.398 147.724 185.359 148.245 185.147 148.705C184.992 149.072 184.724 149.379 184.381 149.581L184.382 149.589Z" fill="#E0E3ED"/>
<path opacity="0.4" d="M64 -41.7929V163.625L64.0143 163.63C64.0555 163.751 64.1327 163.863 64.2401 163.958C64.3476 164.053 64.4826 164.13 64.6352 164.181L119.793 186.742C120.378 186.929 121.013 187.016 121.65 186.997C122.287 186.979 122.91 186.854 123.473 186.633L178.1 164.287C178.302 164.22 178.482 164.122 178.631 164.001C178.78 163.88 178.894 163.738 178.965 163.583L179 163.569V-42.2766L121.503 -65L64 -41.7929Z" fill="url(#paint1_linear_9_80927)"/>
<path d="M58.0381 174.47L38.9177 163.422C37.5581 162.637 37.7291 161.264 39.2986 160.358L57.6575 149.75C59.2275 148.844 61.6018 148.745 62.9617 149.529L82.0821 160.577C83.4419 161.363 83.2711 162.734 81.7012 163.642L63.3425 174.249C61.7725 175.157 59.3988 175.255 58.0381 174.47Z" fill="#F2F5FC"/>
<path d="M76.4833 185.47L56.9381 174.422C55.5483 173.637 55.723 172.264 57.3275 171.358L76.0944 160.75C77.6992 159.844 80.1262 159.745 81.5164 160.529L101.062 171.577C102.452 172.363 102.277 173.734 100.672 174.642L81.9056 185.249C80.3008 186.157 77.8744 186.255 76.4833 185.47Z" fill="#F2F5FC"/>
<path d="M177.483 178.47L157.938 167.422C156.548 166.637 156.723 165.264 158.327 164.358L177.094 153.75C178.699 152.844 181.126 152.745 182.516 153.529L202.062 164.577C203.452 165.363 203.277 166.734 201.672 167.642L182.906 178.249C181.301 179.157 178.874 179.255 177.483 178.47Z" fill="#F2F5FC"/>
<path d="M156.483 190.47L136.938 179.422C135.548 178.637 135.723 177.264 137.327 176.358L156.094 165.75C157.699 164.844 160.126 164.745 161.516 165.529L181.062 176.577C182.452 177.363 182.277 178.734 180.672 179.642L161.906 190.249C160.301 191.157 157.874 191.255 156.483 190.47Z" fill="#F2F5FC"/>
<path d="M146.483 196.47L126.938 185.422C125.548 184.637 125.723 183.264 127.327 182.358L146.094 171.75C147.699 170.844 150.126 170.745 151.516 171.529L171.062 182.577C172.452 183.363 172.277 184.734 170.672 185.642L151.906 196.249C150.301 197.157 147.874 197.255 146.483 196.47Z" fill="#F2F5FC"/>
<path d="M95.9286 196.47L75.9585 185.422C74.5385 184.637 74.717 183.264 76.3563 182.358L95.5312 171.75C97.1709 170.844 99.6507 170.745 101.071 171.529L121.041 182.577C122.461 183.363 122.283 184.734 120.643 185.642L101.469 196.249C99.829 197.157 97.3499 197.255 95.9286 196.47Z" fill="#F2F5FC"/>
<path d="M118.527 187.898L118.486 182.434C118.483 182.046 118.834 181.818 119.269 181.926L124.362 183.187C124.797 183.294 125.152 183.697 125.155 184.085L125.196 189.548C125.199 189.937 124.849 190.164 124.413 190.057L119.321 188.796C118.885 188.689 118.53 188.286 118.527 187.898Z" fill="#F2F5FC"/>
<path d="M121.836 188.934L120.137 183.741C120.016 183.372 120.281 183.049 120.728 183.019L125.963 182.672C126.41 182.642 126.871 182.918 126.992 183.287L128.692 188.479C128.812 188.848 128.548 189.171 128.1 189.201L122.865 189.548C122.418 189.578 121.957 189.303 121.836 188.934Z" fill="#F2F5FC"/>
<path d="M128.478 188.417L124.841 184.34C124.582 184.05 124.696 183.648 125.094 183.441L129.751 181.027C130.15 180.821 130.682 180.888 130.941 181.178L134.577 185.255C134.836 185.545 134.723 185.948 134.325 186.154L129.667 188.568C129.269 188.775 128.737 188.707 128.478 188.417Z" fill="#F2F5FC"/>
<path d="M177.175 105.387C177.175 93.3414 168.562 79.0094 157.868 73.1344C153.825 58.1144 142.911 43.0904 130.044 36.2814C123.997 33.0814 118.393 32.1814 113.719 33.2084V33.1854L104.458 35.2684C104.458 35.2684 98.6208 42.6454 97.8978 44.5684C95.8668 43.1684 92.9239 41.6684 90.8899 42.0344L80.9609 43.9344C80.9609 43.9344 87.3959 83.1054 98.2609 88.8534C102.885 91.2994 161.638 121.314 161.638 121.314L168.291 119.138L168.268 119.129C173.624 118.026 177.175 113.115 177.175 105.387Z" fill="#01A8FB"/>
<path d="M150.216 75.3916C145.939 60.3706 134.392 45.3475 120.777 38.5385C107.162 31.7295 95.6163 35.2045 91.3383 45.9465C80.0243 40.5035 70.9102 45.7206 70.9102 57.7666C70.9102 69.9486 80.2262 84.4825 91.7172 90.2285L149.837 119.296C161.327 125.042 170.643 119.826 170.643 107.644C170.649 95.5985 161.536 81.2656 150.216 75.3916Z" fill="#6AB0FF"/>
</g>
</g>
<defs>
<linearGradient id="paint0_linear_9_80927" x1="135.12" y1="392.417" x2="146.152" y2="104.167" gradientUnits="userSpaceOnUse">
<stop stop-color="white"/>
<stop offset="1" stop-color="#C8CEDE"/>
</linearGradient>
<linearGradient id="paint1_linear_9_80927" x1="121.615" y1="155.5" x2="120.511" y2="10.3547" gradientUnits="userSpaceOnUse">
<stop stop-color="#73BBEE"/>
<stop offset="1" stop-color="white" stop-opacity="0"/>
</linearGradient>
<clipPath id="clip0_9_80927">
<rect width="241" height="290" fill="white"/>
</clipPath>
</defs>
</svg>

<svg xmlns="http://www.w3.org/2000/svg" width="241" height="290" fill="none" viewBox="0 0 241 290"><g clip-path="url(#a)"><mask id="b" width="241" height="290" x="0" y="0" maskUnits="userSpaceOnUse" style="mask-type:luminance"><path fill="#fff" d="M241 0H0v290h241z"/></mask><g mask="url(#b)"><path fill="url(#c)" d="M228.358 149.91h-45.381l-50.516-29.164c-6.506-3.756-17.87-3.285-25.383 1.055L58.385 149.91H13.029v149.874h.015c-.187 2.54 1.233 4.993 4.357 6.8l91.5 52.83c6.507 3.755 17.871 3.285 25.383-1.055l87.858-50.726c3.9-2.251 5.979-5.1 6.182-7.852h.033z"/><path fill="#f2f5fc" d="m108.903 209.542-91.5-52.829c-6.506-3.756-5.688-10.319 1.823-14.654l87.856-50.726c7.513-4.335 18.875-4.806 25.383-1.055l91.5 52.829c6.507 3.756 5.69 10.316-1.823 14.654l-87.855 50.725c-7.513 4.34-18.872 4.81-25.384 1.056"/><path fill="#3a456e" d="m184.38 149.588-54.656 31.351a12.21 12.21 0 0 1-12.33 0l-58.719-33.672a2.114 2.114 0 0 1-.777-2.645 1.87 1.87 0 0 1 .777-.892l55.605-31.889a10.34 10.34 0 0 1 10.428 0l59.672 34.212a2.12 2.12 0 0 1 .773 2.65 1.86 1.86 0 0 1-.773.887z"/><path fill="#e0e3ed" d="m184.382 149.589-5.577 3.2-54.09-31.013a10.34 10.34 0 0 0-10.428 0l-50.03 28.692-5.582-3.2a2.114 2.114 0 0 1-.777-2.645c.156-.373.428-.686.777-.892l55.61-31.894a10.34 10.34 0 0 1 10.428 0l59.673 34.213a2.12 2.12 0 0 1 .761 2.655 1.85 1.85 0 0 1-.766.876z"/><path fill="url(#d)" d="M64-41.793v205.418l.014.005a.8.8 0 0 0 .226.328c.108.095.243.172.395.223l55.158 22.561c.585.187 1.22.274 1.857.255a5.4 5.4 0 0 0 1.823-.364l54.627-22.346a1.7 1.7 0 0 0 .531-.286c.149-.121.263-.263.334-.418l.035-.014V-42.277L121.503-65z" opacity=".4"/><path fill="#f2f5fc" d="m58.038 174.47-19.12-11.048c-1.36-.785-1.189-2.158.38-3.064l18.36-10.608c1.57-.906 3.944-1.005 5.304-.221l19.12 11.048c1.36.786 1.19 2.157-.38 3.065l-18.36 10.607c-1.57.908-3.943 1.006-5.304.221"/><path fill="#f2f5fc" d="m76.483 185.47-19.545-11.048c-1.39-.785-1.215-2.158.39-3.064l18.766-10.608c1.605-.906 4.032-1.005 5.422-.221l19.546 11.048c1.39.786 1.215 2.157-.39 3.065l-18.766 10.607c-1.605.908-4.032 1.006-5.423.221M177.483 178.47l-19.545-11.048c-1.39-.785-1.215-2.158.389-3.064l18.767-10.608c1.605-.906 4.032-1.005 5.422-.221l19.546 11.048c1.39.786 1.215 2.157-.39 3.065l-18.766 10.607c-1.605.908-4.032 1.006-5.423.221"/><path fill="#f2f5fc" d="m156.483 190.47-19.545-11.048c-1.39-.785-1.215-2.158.389-3.064l18.767-10.608c1.605-.906 4.032-1.005 5.422-.221l19.546 11.048c1.39.786 1.215 2.157-.39 3.065l-18.766 10.607c-1.605.908-4.032 1.006-5.423.221"/><path fill="#f2f5fc" d="m146.483 196.47-19.545-11.048c-1.39-.785-1.215-2.158.389-3.064l18.767-10.608c1.605-.906 4.032-1.005 5.422-.221l19.546 11.048c1.39.786 1.215 2.157-.39 3.065l-18.766 10.607c-1.605.908-4.032 1.006-5.423.221M95.929 196.47l-19.97-11.048c-1.42-.785-1.242-2.158.397-3.064l19.175-10.608c1.64-.906 4.12-1.005 5.54-.221l19.97 11.048c1.42.786 1.242 2.157-.398 3.065l-19.174 10.607c-1.64.908-4.12 1.006-5.54.221"/><path fill="#f2f5fc" d="m118.527 187.898-.041-5.464c-.003-.388.348-.616.783-.508l5.093 1.261c.435.107.79.51.793.898l.041 5.463c.003.389-.347.616-.783.509l-5.092-1.261c-.436-.107-.791-.51-.794-.898"/><path fill="#f2f5fc" d="m121.836 188.934-1.699-5.193c-.121-.369.144-.692.591-.722l5.235-.347c.447-.03.908.246 1.029.615l1.7 5.192c.12.369-.144.692-.592.722l-5.235.347c-.447.03-.908-.245-1.029-.614"/><path fill="#f2f5fc" d="m128.478 188.417-3.637-4.077c-.259-.29-.145-.692.253-.899l4.657-2.414c.399-.206.931-.139 1.19.151l3.636 4.077c.259.29.146.693-.252.899l-4.658 2.414c-.398.207-.93.139-1.189-.151"/><path fill="#01a8fb" d="M177.175 105.387c0-12.046-8.613-26.378-19.307-32.253-4.043-15.02-14.957-30.044-27.824-36.853-6.047-3.2-11.651-4.1-16.325-3.073v-.023l-9.261 2.083s-5.837 7.377-6.56 9.3c-2.031-1.4-4.974-2.9-7.008-2.534l-9.93 1.9s6.436 39.171 17.3 44.92c4.625 2.445 63.378 32.46 63.378 32.46l6.653-2.176-.023-.009c5.356-1.103 8.907-6.014 8.907-13.742"/><path fill="#6ab0ff" d="M150.216 75.392c-4.277-15.021-15.824-30.044-29.439-36.853s-25.16-3.334-29.439 7.407c-11.314-5.442-20.428-.225-20.428 11.82 0 12.183 9.316 26.717 20.807 32.463l58.12 29.067c11.49 5.746 20.806.53 20.806-11.652.006-12.046-9.107-26.378-20.427-32.252"/></g></g><defs><linearGradient id="c" x1="135.12" x2="146.152" y1="392.417" y2="104.167" gradientUnits="userSpaceOnUse"><stop stop-color="#fff"/><stop offset="1" stop-color="#c8cede"/></linearGradient><linearGradient id="d" x1="121.615" x2="120.511" y1="155.5" y2="10.355" gradientUnits="userSpaceOnUse"><stop stop-color="#73bbee"/><stop offset="1" stop-color="#fff" stop-opacity="0"/></linearGradient><clipPath id="a"><path fill="#fff" d="M0 0h241v290H0z"/></clipPath></defs></svg>
